X: 4
T: March Of The Meeatoiteen Bull
R: reel
M: 4/4
L: 1/8
K: Edor
|:E2B2 B2AF | A2Bc dB(de) | E2B2 B2AF | (cd)BA F2ED |
E2B2 B2AF | A2Bc dB(de) | dBAF (B2c)A | BcAF E2FD :||
|:E2e2 e2dB | A2Bc dB(de) | E2e2 e2dB | AdBA F2ED |
E2e2 e2dB | A2Bc dB(de) | dBAF (B2c)A | BcAF E2FD :||


Tune 2123	Setting 21119

